!!!OTL: DIE BINSGAUER WOLLTEN WALLFAHRTEN GAHN
!!!ARE: Europa, Mitteleuropa, Deutschland
!!!SCT: E1761
!!!YEM: Copyright 1995, estate of Helmut Schaffrath.
**kern
*ICvox
*Ivox
*M4/4
*k[f#]
*G:
{4d
=1
4g
8g
8a
8g
8f#
8e
8d
=2
4g
8g
8b
2a}
=3
{4.g
8f#
4e
4a
=4
4g
4f#
4g}
{4d
=5
4g
8g
8a
8g
8f#
8e
8d
=6
4g
8g
8b
2a}
=7
{4.g
8f#
4e
4a
=8
4g
4f#
4g
8r}
{8a
=9
8b
8b
8b
8b
4cc
8cc
8b
=10
8a
8a
8a
8a
2dd}
=11
{4b
4b
2cc
=12
8a
8a
8a
8a
4dd
8r}
{8d
=13
8g
8f#
8e
8d
8e
8f#
8g
8a
=14
4g
4f#
4g
8r}
{8d
=15
8g
8f#
8e
8d
8e
8f#
8g
8a
=16
4g
4f#
4g}
==
!!!AGN: Spott - Lied auf Wallfahrt
!!!ONB: ESAC (Essen Associative Code) Database: ERK3
!!!AMT: simple quadruple
!!!AIN: vox
!!!EED: Helmut Schaffrath
!!!EEV: 1.0
*-
